X: 40946
T: Trip To Cartmel, The
R: reel
M: 4/4
K: Amixolydian
|:ceeg aeeg|fddf gfed|ceef/g/ aeeg|fdf/g/a/f/ e2 d2:|
|:cAAc BGGB|cAAg aeed|cAAc BGGB|cAAB c/d/d B2:|

